dist/icons/svgs/trash-can-outline.svg

<svg xmlns="http://www.w3.org/2000/svg" width="24" height="24" fill="currentcolor" class="icon-trash-can-outline" viewBox="0 0 24 24">
  <path d="M9.89062 4.03125L9.14844 5.125H14.8125L14.0703 4.03125C14.0312 3.95312 13.9141 3.875 13.7969 3.875H10.1641C10.0469 3.875 9.92969 3.95312 9.89062 4.03125ZM15.6328 2.97656L17.0781 5.125H17.625H19.5H19.8125C20.3203 5.125 20.75 5.55469 20.75 6.0625C20.75 6.60938 20.3203 7 19.8125 7H19.5V18.875C19.5 20.6328 18.0938 22 16.375 22H7.625C5.86719 22 4.5 20.6328 4.5 18.875V7H4.1875C3.64062 7 3.25 6.60938 3.25 6.0625C3.25 5.55469 3.64062 5.125 4.1875 5.125H4.5H6.375H6.88281L8.32812 2.97656C8.71875 2.39062 9.42188 2 10.1641 2H13.7969C14.5391 2 15.2422 2.39062 15.6328 2.97656ZM6.375 7V18.875C6.375 19.5781 6.92188 20.125 7.625 20.125H16.375C17.0391 20.125 17.625 19.5781 17.625 18.875V7H6.375ZM9.5 9.5V17.625C9.5 17.9766 9.1875 18.25 8.875 18.25C8.52344 18.25 8.25 17.9766 8.25 17.625V9.5C8.25 9.1875 8.52344 8.875 8.875 8.875C9.1875 8.875 9.5 9.1875 9.5 9.5ZM12.625 9.5V17.625C12.625 17.9766 12.3125 18.25 12 18.25C11.6484 18.25 11.375 17.9766 11.375 17.625V9.5C11.375 9.1875 11.6484 8.875 12 8.875C12.3125 8.875 12.625 9.1875 12.625 9.5ZM15.75 9.5V17.625C15.75 17.9766 15.4375 18.25 15.125 18.25C14.7734 18.25 14.5 17.9766 14.5 17.625V9.5C14.5 9.1875 14.7734 8.875 15.125 8.875C15.4375 8.875 15.75 9.1875 15.75 9.5Z"/>
</svg>

<svg xmlns="http://www.w3.org/2000/svg" width="24" height="24" fill="currentColor" class="icon-trash-can-outline" viewBox="0 0 24 24">
  <path d="m9.89 4.031-.742 1.094h5.665l-.743-1.094a.33.33 0 0 0-.273-.156h-3.633a.33.33 0 0 0-.273.156m5.743-1.054 1.445 2.148h2.735a.95.95 0 0 1 .937.938c0 .546-.43.937-.937.937H19.5v11.875A3.11 3.11 0 0 1 16.375 22h-8.75C5.867 22 4.5 20.633 4.5 18.875V7h-.312c-.547 0-.938-.39-.938-.937 0-.508.39-.938.938-.938h2.695l1.445-2.148A2.24 2.24 0 0 1 10.164 2h3.633c.742 0 1.445.39 1.836.977M6.375 7v11.875c0 .703.547 1.25 1.25 1.25h8.75c.664 0 1.25-.547 1.25-1.25V7zM9.5 9.5v8.125a.64.64 0 0 1-.625.625.617.617 0 0 1-.625-.625V9.5c0-.312.273-.625.625-.625.313 0 .625.313.625.625m3.125 0v8.125a.64.64 0 0 1-.625.625.617.617 0 0 1-.625-.625V9.5c0-.312.273-.625.625-.625.313 0 .625.313.625.625m3.125 0v8.125a.64.64 0 0 1-.625.625.617.617 0 0 1-.625-.625V9.5c0-.312.273-.625.625-.625.313 0 .625.313.625.625"/>
</svg>
